packages/heroicons/src/interstate/outline/pencil-square.svg

<svg width="16" height="17" viewBox="0 0 16 17" fill="none" xmlns="http://www.w3.org/2000/svg">
<g clip-path="url(#clip0_1243_5052)">
<path d="M11.4547 3.05619L12.7506 1.76034C13.3128 1.19805 14.2245 1.19805 14.7868 1.76034C15.3491 2.32263 15.3491 3.23428 14.7868 3.79657L6.63262 11.9507C6.22664 12.3567 5.72591 12.6551 5.17567 12.819L3.11391 13.4332L3.72807 11.3715C3.89198 10.8212 4.1904 10.3205 4.59638 9.91452L11.4547 3.05619ZM11.4547 3.05619L13.4807 5.08218M12.3288 10.3616V14.0091C12.3288 14.9634 11.5553 15.7369 10.601 15.7369H2.53798C1.58374 15.7369 0.810181 14.9634 0.810181 14.0091V5.94608C0.810181 4.99184 1.58374 4.21828 2.53798 4.21828H6.18555" stroke="black" stroke-width="1.5" stroke-linecap="round" stroke-linejoin="round"/>
</g>
<defs>
<clipPath id="clip0_1243_5052">
<rect width="16" height="16" fill="white" transform="translate(0 0.547119)"/>
</clipPath>
</defs>
</svg>

<svg viewBox="0 0 16 17">
  <g clip-path="url(#a)">
    <path stroke="currentColor" stroke-linecap="round" stroke-linejoin="round" stroke-width="1.5" d="m11.455 3.098 1.296-1.296a1.44 1.44 0 1 1 2.036 2.036l-8.154 8.154a3.456 3.456 0 0 1-1.457.868l-2.062.615.614-2.062c.164-.55.462-1.051.868-1.457l6.859-6.858Zm0 0 2.026 2.026m-1.152 5.279v3.647c0 .955-.774 1.728-1.728 1.728H2.538A1.728 1.728 0 0 1 .81 14.05V5.987c0-.954.774-1.727 1.728-1.727h3.648"/>
  </g>
  <defs>
    <clipPath id="a">
      <path d="M0 0h16v16H0z" transform="translate(0 .589)"/>
    </clipPath>
  </defs>
</svg>
